X:1
T: Ireland's Own
C:
R:Jig
Q:180
K:D
M:6/8
L:1/16
|:g2|f2e2d2 d2B2c2|d4B2A4G2|F2A2d2 d2c2d2|f2e2e2 e2f2g2|
f2e2d2 d2B2c2|d4B2A4G2|F2A2d2 f2e2c2|e2d2d2d4:|
|:g2|f2d2f2 a4a2|f2d2f2 a4a2|a2g2g2 g2f2f2|f2e2e2 e2f2g2|
f2d2f2 a4a2|f2d2f2 a4a2|a2^g2f2 e2f2g2|b6a4:|
